X:1
T:Title
%%score { ( 1 3 ) | 2 }
L:1/8
Q:1/4=95
M:6/8
K:Bb
V:1 treble nm="Grand Piano"
V:3 treble 
V:2 bass 
V:1
 [DF][DF][DF] [DF][_D=E][=DF] | [EG]3 [DF]3 | FFF FGA | [DB]6 | [Fd][Fd][Fd] [Fd][=E_d][F=d] | %5
w: Will~H.~Ruebush * * * * *|||||
 [Ge]3 [Fd]3 | [EFc][DFB][CFA] [Fc][=EB][CG] | [CF]6 | [DF][DF][DF] [DF][_D=E][=DF] | [EG]3 [DF]3 | %10
w: |||||
 GGG G[=EA][EB] | c6 | ddd edG | [=Ec]3 [EG]3 | %14
w: ||||
 FFF FFF[Q:1/4=93][Q:1/4=92][Q:1/4=90][Q:1/4=89][Q:1/4=87][Q:1/4=86][Q:1/4=84][Q:1/4=83][Q:1/4=81][Q:1/4=80][Q:1/4=78][Q:1/4=77][Q:1/4=75][Q:1/4=74][Q:1/4=72] | %15
w: |
 [DF]6 |] %16
w: |
V:2
 [B,,B,][B,,B,][B,,B,] [B,,B,][B,,G,][B,,F,] | [B,,B,]3 [B,,B,]3 | %2
 [F,B,D][F,B,D][F,B,D] [F,A,C][F,B,C][F,E] | [B,,F,]6 | %4
 [B,,B,][B,,B,][B,,B,] [B,,B,][B,,B,][B,,B,] | [B,,B,]3 [B,,B,]3 | A,,B,,C, [C,A,][C,G,][C,B,] | %7
 [F,A,]6 | [B,,B,][B,,B,][B,,B,] [B,,B,][B,,G,][B,,F,] | [B,,B,]3 [B,,B,]3 | %10
 [E,B,E][E,B,E][E,B,E] [D,=B,][C,C][C,_B,] | [F,A,E]6 | [B,F][B,F][B,F] [G,=B,G][G,B,F][G,B,F] | %13
 [C,G,]3 [C,B,]3 | [F,B,D][F,B,D][F,B,D] [F,A,C][F,B,D][F,CE] | [B,,B,]6 |] %16
V:3
 x6 | x6 | x6 | x6 | x6 | x6 | x6 | x6 | x6 | x6 | z3 .F3 | x6 | x6 | x6 | x6 | x6 |] %16

